svg/meter_face.svg

<svg width="24" height="24" viewBox="0 0 24 24"  xmlns="http://www.w3.org/2000/svg">
<path d="M17 7H12V9H17V7Z" />
<path d="M17 11H9V13H17V11Z" />
<path fill-rule="evenodd" clip-rule="evenodd" d="M3 19C3 20.1 3.9 21 5 21H19C20.1 21 21 20.1 21 19V5C21 3.9 20.1 3 19 3H5C3.9 3 3 3.9 3 5V19ZM5 5H19V15H5V5ZM10 19C10.5523 19 11 18.5523 11 18C11 17.4477 10.5523 17 10 17C9.44772 17 9 17.4477 9 18C9 18.5523 9.44772 19 10 19ZM15 18C15 18.5523 14.5523 19 14 19C13.4477 19 13 18.5523 13 18C13 17.4477 13.4477 17 14 17C14.5523 17 15 17.4477 15 18ZM18 19C18.5523 19 19 18.5523 19 18C19 17.4477 18.5523 17 18 17C17.4477 17 17 17.4477 17 18C17 18.5523 17.4477 19 18 19Z" />
</svg>

<svg width="24" height="24" viewBox="0 0 24 24" xmlns="http://www.w3.org/2000/svg"><path d="M17 7h-5v2h5V7zM17 11H9v2h8v-2z"/><path fill-rule="evenodd" clip-rule="evenodd" d="M3 19c0 1.1.9 2 2 2h14c1.1 0 2-.9 2-2V5c0-1.1-.9-2-2-2H5c-1.1 0-2 .9-2 2v14zM5 5h14v10H5V5zm5 14a1 1 0 1 0 0-2 1 1 0 0 0 0 2zm5-1a1 1 0 1 1-2 0 1 1 0 0 1 2 0zm3 1a1 1 0 1 0 0-2 1 1 0 0 0 0 2z"/></svg>
